!! 00000] TT[WS
!!!OTL: Ji fei
!!!ARE: Asia, China, Shanxi Zuoquan
!! Ethnic Group: Han
!! WII, 247
!!!SCT: J0769
!!!YEM: Copyright 1995, estate of Helmut Schaffrath.
**kern
*ICvox
*Ivox
*M2/4
*k[b-]
*F:
{8dd
8ff
8dd
8cc
=1
4b-
8a
8g
=2
8f
8e
8d
8f
=3
2g}
=4
{8dd
8ff
8dd
8cc
=5
4b-
4a
=6
8g
8a
8dd
8cc
=7
4g
4r}
=8
{8g
8r
8cc
8r
=9
8g
8r
8cc
8r
=10
4g
8g
8cc
=11
4.f
16e
16d}
=12
{4.c
8d
=13
4.f
16e
16d
=14
8c
8B-
8A
8d
=15
2c}
==
!!!AGN: Xiaodiao. Laodong, Xinminge
!!!ONB: ESAC (Essen Associative Code) Database: CHINA
!!!AMT: simple duple
!!!AIN: vox
!!!EED: Helmut Schaffrath
!!!EEV: 1.0
*-
